!!!COM: Music21
!!!OTL: Rumba dos Fros
!!!OMV: pezas_rumbas_rumba-dos-fros_rumba-dos-fros-partitura.musicxml
**kern
*I"Bagpipes
*I'Bag
*clefG^2
*k[]
*M2/4
=1
!LO:TX:a:t=Andante
*MM80
!LO:TX:a:t=[quarter]=80
4.r
8gg
=||
8cccL
16cccL
16cccJJ
8cccL
8cccJ
=
8bbL
16aaL
16ggJJ
8aaL
8bbJ
=
8aaL
[8ggJ
4gg_
=
8ggL]
16aaL
16ffJJ
8ggL
16aaL
16ffJJ
=
4.gg
8ee
=
8ggL
16ggL
16ggJJ
8ggL
8ggJ
=
8ggL
16ffL
16eeJJ
8ffL
8ggJ
!!linebreak:original
=
8aaL
[8ggJ
4gg_
!!linebreak:original
=
8ggL]
16aaL
16ffJJ
8ggL
16aaL
16ffJJ
=
4.gg
8ee
=
8ggL
16ggL
16ggJJ
8ggL
8ggJ
=
8ggL
16ffL
16eeJJ
8ffL
8eeJ
=
8ddL
[8ccJ
4cc_
=
4.cc]
16eeLL
16ffJJ
=||
8ggL
16aaL
16ggJJ
8ffL
16ggL
16eeJJ
=
8ffL
[8ddJ
8ddL]
16ddL
16eeJJ
!!linebreak:original
=
8ffL
16ggL
16aaJJ
8aaL
16ggL
16ffJJ
=
4.gg
16eeLL
16ffJJ
=
8ggL
16aaL
16ggJJ
8ffL
16ggL
16eeJJ
=
8ffL
16ddL
16ffJJ
8cccL
16bbL
16aaJJ
=
8ggL
16aaL
16ggJJ
8ffL
16eeL
16ddJJ
=
4.cc
16eeLL
16ffJJ
=||
8ggL
16aaL
16ggJJ
8ffL
16ggL
16eeJJ
!!linebreak:original
=
8ffL
[8ddJ
8ddL]
16ddL
16eeJJ
!!linebreak:original
=
8ffL
16ggL
16aaJJ
8aaL
16ggL
16ffJJ
=
4.gg
16eeLL
16ffJJ
=
8ggL
16aaL
16ggJJ
8ffL
16ggL
16eeJJ
=
8ffL
16ddL
16ffJJ
8cccL
16bbL
16aaJJ
=
8ggL
16aaL
16ggJJ
8ffL
16eeL
16ddJJ
!!linebreak:original
=||
4.cc
16ggLL
16ggJJ
=||
8ggL
16ffL
[16ddJJ
8ddL]
16ggL
16ggJJ
=
8ggL
16eeL
[16ccJJ
8ccL]
16ggL
16ggJJ
=
8ggL
16ffL
16ddJJ
8ggL
16ffL
16ddJJ
=
8ggL
16eeL
[16ccJJ
8ccL]
16ggL
16ggJJ
=||
8ggL
16ffL
[16ddJJ
8ddL]
16ggL
16ggJJ
=
8ggL
16eeL
[16ccJJ
8ccL]
16ggL
16ggJJ
!!linebreak:original
=
8ggL
16ffL
16ddJJ
8ggL
16ffL
16ddJJ
=
4.cc
8gg
=||
8cc
8r
4r
==
*-
